webroot/icon/noimage.svg

<svg xmlns="http://www.w3.org/2000/svg" width="100" height="100" viewBox="0 0 100 100" version="1.1"><path style="fill:#ececec" d="M0 0v100h46.748l2.942-15-1.86-5.1 2.557-7.701-5.11-9.099L51.082 51 43.42 35.811l3.482-12.661L41.141 0H0zm55.856 0l1.265 16.57-6.734 15.2L59.906 51l-8.011 11.6 3.599 6.599-3.252 9.201 1.744 4.5-5.371 17.1H100V0H55.856z"/></svg>

<?xml version="1.0" encoding="UTF-8" standalone="no"?><svg xmlns:svg="http://www.w3.org/2000/svg" xmlns="http://www.w3.org/2000/svg" width="100" height="100" viewBox="0 0 100 100" version="1.1"><path style="fill:#ececec" d="M 0,0 0,100 46.748,100 49.69,85 47.83,79.9 50.387,72.199 45.277,63.1 51.082,51 43.42,35.811 46.902,23.15 41.141,0 0,0 Z m 55.856,0 1.265,16.57 -6.734,15.2 9.519,19.23 -8.011,11.6 3.599,6.599 -3.252,9.201 1.744,4.5 L 48.615,100 100,100 100,0 55.856,0 Z"/></svg>
